Origami/32x32/apps/teamcity.svg

<svg width="32" height="32" version="1" xmlns="http://www.w3.org/2000/svg">
 <path d="M 3.4003906,31 C 2.6247906,31 2,30.375209 2,29.599609 v -1 C 2,29.375209 2.6247906,30 3.4003906,30 H 16 28.599609 C 29.375209,30 30,29.375209 30,28.599609 v 1 C 30,30.375209 29.375209,31 28.599609,31 H 16 Z" style="opacity:.2"/>
 <path d="m16 2h-12.6c-0.7756 0-1.4 0.6244-1.4 1.4v12.6h14z" style="fill:#6655e4"/>
 <path d="m16 2h12.6c0.7756 0 1.4 0.6244 1.4 1.4v12.6h-14z" style="fill:#21d789"/>
 <path d="m16 30h-12.6c-0.7756 0-1.4-0.6244-1.4-1.4v-12.6h14z" style="fill:#14ddb1"/>
 <path d="m16 30h12.6c0.7756 0 1.4-0.6244 1.4-1.4v-12.6h-14z" style="fill:#2086e7"/>
 <path d="M 3.4003906 2 C 2.6247906 2 2 2.6247906 2 3.4003906 L 2 4.4003906 C 2 3.6247906 2.6247906 3 3.4003906 3 L 16 3 L 28.599609 3 C 29.375209 3 30 3.6247906 30 4.4003906 L 30 3.4003906 C 30 2.6247906 29.375209 2 28.599609 2 L 16 2 L 3.4003906 2 z" style="fill:#ffffff;opacity:.2"/>
 <rect x="6" y="6" width="20" height="20" style="fill:#3f3f3f"/>
 <path d="m21.000244 16.999514s0 1.000003-2 1.000003c-1.999999 0-1.999999-2.000001-1.999999-4.000003 0-1.999997 0-3.9999984 1.999999-3.9999984 2 0 2 0.9999984 2 0.9999984" style="fill:none;opacity:.2;stroke-linecap:round;stroke-linejoin:bevel;stroke-width:1.9999999;stroke:#000000"/>
 <path d="m21.000244 15.999614s0 1.000003-2 1.000003c-1.999999 0-1.999999-2.000001-1.999999-4.000003 0-1.999997 0-3.9999984 1.999999-3.9999984 2 0 2 0.999998 2 0.999998" style="fill:none;stroke-linecap:round;stroke-linejoin:bevel;stroke-width:1.9999999;stroke:#ffffff"/>
 <path d="m9.0002444 23.9999h7.9999996" style="fill:none;opacity:.2;stroke-linecap:round;stroke-width:2;stroke:#000000"/>
 <path d="m9.0002444 23h7.9999996" style="fill:none;stroke-linecap:round;stroke-width:2;stroke:#ffffff"/>
 <path d="m9.0002424 9.9997556h3.9999986m-1.999997 8.0000024v-8.0000024" style="fill:none;opacity:.2;stroke-linecap:round;stroke-width:1.9999999;stroke:#000000"/>
 <path d="m9.0002424 8.9998556h3.9999986m-1.999997 8.0000024v-8.0000024" style="fill:none;stroke-linecap:round;stroke-width:1.9999999;stroke:#ffffff"/>
</svg>

<svg xmlns="http://www.w3.org/2000/svg" width="32" height="32" version="1">
 <path style="opacity:0.2" d="M 3.4003906,31 C 2.6247906,31 2,30.375209 2,29.599609 v -1 C 2,29.375209 2.6247906,30 3.4003906,30 H 16 28.599609 C 29.375209,30 30,29.375209 30,28.599609 v 1 C 30,30.375209 29.375209,31 28.599609,31 H 16 Z"/>
 <path style="fill:#6655e4" d="M 16,2 H 3.4 C 2.6244,2 2,2.6244 2,3.4 V 16 h 14 z"/>
 <path style="fill:#21d789" d="M 16,2 H 28.6 C 29.3756,2 30,2.6244 30,3.4 V 16 H 16 Z"/>
 <path style="fill:#14ddb1" d="M 16,30 H 3.4 C 2.6244,30 2,29.3756 2,28.6 V 16 h 14 z"/>
 <path style="fill:#2086e7" d="M 16,30 H 28.6 C 29.3756,30 30,29.3756 30,28.6 V 16 H 16 Z"/>
 <path style="fill:#ffffff;opacity:0.2" d="M 3.4003906 2 C 2.6247906 2 2 2.6247906 2 3.4003906 L 2 4.4003906 C 2 3.6247906 2.6247906 3 3.4003906 3 L 16 3 L 28.599609 3 C 29.375209 3 30 3.6247906 30 4.4003906 L 30 3.4003906 C 30 2.6247906 29.375209 2 28.599609 2 L 16 2 L 3.4003906 2 z"/>
 <rect style="fill:#3f3f3f" width="20" height="20" x="6" y="6"/>
 <path style="opacity:0.2;fill:none;stroke:#000000;stroke-width:1.99999988;stroke-linecap:round;stroke-linejoin:bevel" d="m 21.000244,16.999514 c 0,0 0,1.000003 -2,1.000003 -1.999999,0 -1.999999,-2.000001 -1.999999,-4.000003 0,-1.999997 0,-3.9999984 1.999999,-3.9999984 2,0 2,0.9999984 2,0.9999984"/>
 <path style="fill:none;stroke:#ffffff;stroke-width:1.99999988;stroke-linecap:round;stroke-linejoin:bevel" d="m 21.000244,15.999614 c 0,0 0,1.000003 -2,1.000003 -1.999999,0 -1.999999,-2.000001 -1.999999,-4.000003 0,-1.999997 0,-3.9999984 1.999999,-3.9999984 2,0 2,0.999998 2,0.999998"/>
 <path style="opacity:0.2;fill:none;stroke:#000000;stroke-width:2;stroke-linecap:round" d="M 9.0002444,23.9999 H 17.000244"/>
 <path style="fill:none;stroke:#ffffff;stroke-width:2;stroke-linecap:round" d="M 9.0002444,23 H 17.000244"/>
 <path style="opacity:0.2;fill:none;stroke:#000000;stroke-width:1.99999988;stroke-linecap:round" d="M 9.0002424,9.9997556 H 13.000241 M 11.000244,17.999758 V 9.9997556"/>
 <path style="fill:none;stroke:#ffffff;stroke-width:1.99999988;stroke-linecap:round" d="M 9.0002424,8.9998556 H 13.000241 M 11.000244,16.999858 V 8.9998556"/>
</svg>
